X: 131025
T: Mary O'Neill's
S: "Crossroads Dance" [Taylor/Mallinson]
Z: B.Black
R: reel
M: 4/4
L: 1/8
K: D
F3A AFDE|F2 EA FDDE|FEFA AFDE|FAEA D3 z :|
d3A FGAB|A2 dA (3Bcd ec|d3A FGAB|AFGE FD D2 :|
